src/pos-icons/key-minus.svg

<svg height="24" viewBox="0 0 24 24" width="24" xmlns="http://www.w3.org/2000/svg"><path d="m6.5 3c1.96 0 3.63 1.25 4.24 3h11.26v3h-4v3h-3v-3h-4.26c-.61 1.75-2.28 3-4.24 3-2.5 0-4.5-2-4.5-4.5s2-4.5 4.5-4.5m0 3a1.5 1.5 0 0 0 -1.5 1.5 1.5 1.5 0 0 0 1.5 1.5 1.5 1.5 0 0 0 1.5-1.5 1.5 1.5 0 0 0 -1.5-1.5m1.5 11h8v2h-8z"/></svg>

<?xml version="1.0" encoding="UTF-8"?><!DOCTYPE svg PUBLIC "-//W3C//DTD SVG 1.1//EN" "http://www.w3.org/Graphics/SVG/1.1/DTD/svg11.dtd"><svg xmlns="http://www.w3.org/2000/svg" xmlns:xlink="http://www.w3.org/1999/xlink" version="1.1" id="mdi-key-minus" width="24" height="24" viewBox="0 0 24 24"><path d="M6.5,3C8.46,3 10.13,4.25 10.74,6H22V9H18V12H15V9H10.74C10.13,10.75 8.46,12 6.5,12C4,12 2,10 2,7.5C2,5 4,3 6.5,3M6.5,6A1.5,1.5 0 0,0 5,7.5A1.5,1.5 0 0,0 6.5,9A1.5,1.5 0 0,0 8,7.5A1.5,1.5 0 0,0 6.5,6M8,17H16V19H8V17Z" /></svg>
